svg/u1f319.svg

<svg viewBox="0 0 128 128" xmlns="http://www.w3.org/2000/svg">
  <path d="M99.32,28.84L93.51,9.5l-1.98-2.66c0,0-0.15-0.18-0.17-0.24c-0.06-0.25-0.13-0.66,0.11-0.97 c0.18-0.23,0.49-0.29,0.85-0.26c0.14,0.01,0.48,0.14,1.02,0.44c5.31,3,28.21,21.75,30.14,52.02c1.09,17.1-5.15,35.4-18.27,48.16 c-12.46,12.11-31.28,19.65-51.98,16.7C22.29,118.28,9.01,99.48,5.54,93.27c-0.61-1.1-0.91-1.8-0.97-1.97 c-0.82-2.15-0.6-3.24,0.17-3.49c0.2-0.06,0.65,0.02,0.9,0.3c1,1.12,2.82,1.85,2.82,1.85l12.88,10.43l63.89,4.84l22.65-49.38 L99.32,28.84z" fill="#FFB803"/>
  <path d="M73.65,87.67c15.97-9.9,23.77-26.72,24.39-42.28c0.9-22.79-6.68-38.8-6.68-38.8 s14.01,11.5,21.68,28.08s9,43.87-7.78,63.4c-18.45,21.45-43.18,22.72-58.73,18.7C14.26,108.42,5.44,87.94,5.44,87.94 s17.78,9.95,37.77,8.9C58.09,96.06,65.75,92.57,73.65,87.67z" fill="#FFCA29"/>
</svg>

<svg viewBox="0 0 128 128" xmlns="http://www.w3.org/2000/svg">
  <defs/>
  <path d="M99.32,28.84 L93.51,9.5 L91.53,6.84 C91.53,6.84 91.38,6.66 91.36,6.6 C91.3,6.35 91.23,5.94 91.47,5.63 C91.65,5.4 91.96,5.34 92.32,5.37 C92.46,5.38 92.8,5.51 93.34,5.81 C98.65,8.81 121.55,27.56 123.48,57.83 C124.57,74.93 118.33,93.23 105.21,105.99 C92.75,118.1 73.93,125.64 53.23,122.69 C22.29,118.28 9.01,99.48 5.54,93.27 C4.93,92.17 4.63,91.47 4.57,91.3 C3.75,89.15 3.97,88.06 4.74,87.81 C4.94,87.75 5.39,87.83 5.64,88.11 C6.64,89.23 8.46,89.96 8.46,89.96 L21.34,100.39 L85.23,105.23 L107.88,55.85 L99.32,28.84 Z" fill="#FFB803"/>
  <path d="M73.65,87.67 C89.62,77.77 97.42,60.95 98.04,45.39 C98.94,22.6 91.36,6.59 91.36,6.59 C91.36,6.59 105.37,18.09 113.04,34.67 C120.71,51.25 122.04,78.54 105.26,98.07 C86.81,119.52 62.08,120.79 46.53,116.77 C14.26,108.42 5.44,87.94 5.44,87.94 C5.44,87.94 23.22,97.89 43.21,96.84 C58.09,96.06 65.75,92.57 73.65,87.67 Z" fill="#FFCA29"/>
</svg>
